img/cv.logo.svg

<svg width="137" height="54" viewBox="0 0 137 54" fill="none" xmlns="http://www.w3.org/2000/svg">
<rect width="137" height="54" fill="#FFFDFD"/>
<path d="M57.704 37.288C60.368 37.288 62.36 36.376 64.064 34.672L62.168 32.368C61.064 33.4 59.576 34.192 57.848 34.192C54.536 34.192 52.352 31.936 52.352 28.072C52.352 24.256 54.512 21.928 57.824 21.928C59.384 21.928 60.656 22.576 61.736 23.488L63.656 21.184C62.336 19.96 60.368 18.88 57.752 18.88C52.472 18.88 48.704 22.336 48.704 28.192C48.704 34.096 52.568 37.288 57.704 37.288ZM77.888 37H82.088L88.352 19.168H84.752L81.968 27.88C81.32 29.848 80.792 31.648 80.144 33.616H80.024C79.328 31.648 78.824 29.848 78.2 27.88L75.392 19.168H71.648L77.888 37Z" fill="black"/>
<rect x="70" y="25" width="22" height="5" fill="white"/>
<path d="M70.812 29L70 26.856H70.376L70.832 28.12C70.8533 28.1787 70.876 28.244 70.9 28.316C70.924 28.388 70.9453 28.4573 70.964 28.524C70.9827 28.588 70.996 28.6427 71.004 28.688H71.02C71.0307 28.6427 71.0453 28.5867 71.064 28.52C71.0853 28.4533 71.108 28.384 71.132 28.312C71.1587 28.24 71.1813 28.176 71.2 28.12L71.656 26.856H72.032L71.216 29H70.812ZM74.1833 26.82C74.4446 26.82 74.6379 26.8773 74.7633 26.992C74.8886 27.1067 74.9513 27.2893 74.9513 27.54V29H74.6953L74.6273 28.696H74.6113C74.5179 28.8133 74.4193 28.9 74.3153 28.956C74.2139 29.012 74.0726 29.04 73.8913 29.04C73.6966 29.04 73.5353 28.9893 73.4073 28.888C73.2793 28.784 73.2153 28.6227 73.2153 28.404C73.2153 28.1907 73.2993 28.0267 73.4673 27.912C73.6353 27.7947 73.8939 27.7307 74.2433 27.72L74.6073 27.708V27.58C74.6073 27.4013 74.5686 27.2773 74.4913 27.208C74.4139 27.1387 74.3046 27.104 74.1633 27.104C74.0513 27.104 73.9446 27.1213 73.8433 27.156C73.7419 27.188 73.6473 27.2253 73.5592 27.268L73.4513 27.004C73.5446 26.9533 73.6553 26.9107 73.7833 26.876C73.9113 26.8387 74.0446 26.82 74.1833 26.82ZM74.2873 27.964C74.0206 27.9747 73.8353 28.0173 73.7313 28.092C73.6299 28.1667 73.5793 28.272 73.5793 28.408C73.5793 28.528 73.6153 28.616 73.6873 28.672C73.7619 28.728 73.8566 28.756 73.9713 28.756C74.1526 28.756 74.3033 28.7067 74.4233 28.608C74.5433 28.5067 74.6033 28.352 74.6033 28.144V27.952L74.2873 27.964ZM77.4734 29.04C77.2841 29.04 77.1148 29.0013 76.9654 28.924C76.8188 28.8467 76.7028 28.7267 76.6174 28.564C76.5348 28.4013 76.4934 28.1933 76.4934 27.94C76.4934 27.676 76.5374 27.4613 76.6254 27.296C76.7134 27.1307 76.8321 27.0093 76.9814 26.932C77.1334 26.8547 77.3054 26.816 77.4974 26.816C77.6068 26.816 77.7121 26.828 77.8134 26.852C77.9148 26.8733 77.9974 26.9 78.0614 26.932L77.9534 27.224C77.8894 27.2 77.8148 27.1773 77.7294 27.156C77.6441 27.1347 77.5641 27.124 77.4894 27.124C77.0681 27.124 76.8574 27.3947 76.8574 27.936C76.8574 28.1947 76.9081 28.3933 77.0094 28.532C77.1134 28.668 77.2668 28.736 77.4694 28.736C77.5868 28.736 77.6894 28.724 77.7774 28.7C77.8681 28.676 77.9508 28.6467 78.0254 28.612V28.924C77.9534 28.9613 77.8734 28.9893 77.7854 29.008C77.7001 29.0293 77.5961 29.04 77.4734 29.04ZM80.3473 26.82C80.6086 26.82 80.802 26.8773 80.9273 26.992C81.0526 27.1067 81.1153 27.2893 81.1153 27.54V29H80.8593L80.7913 28.696H80.7753C80.682 28.8133 80.5833 28.9 80.4793 28.956C80.378 29.012 80.2366 29.04 80.0553 29.04C79.8606 29.04 79.6993 28.9893 79.5713 28.888C79.4433 28.784 79.3793 28.6227 79.3793 28.404C79.3793 28.1907 79.4633 28.0267 79.6313 27.912C79.7993 27.7947 80.058 27.7307 80.4073 27.72L80.7713 27.708V27.58C80.7713 27.4013 80.7326 27.2773 80.6553 27.208C80.578 27.1387 80.4686 27.104 80.3273 27.104C80.2153 27.104 80.1086 27.1213 80.0073 27.156C79.906 27.188 79.8113 27.2253 79.7233 27.268L79.6153 27.004C79.7086 26.9533 79.8193 26.9107 79.9473 26.876C80.0753 26.8387 80.2086 26.82 80.3473 26.82ZM80.4513 27.964C80.1846 27.9747 79.9993 28.0173 79.8953 28.092C79.794 28.1667 79.7433 28.272 79.7433 28.408C79.7433 28.528 79.7793 28.616 79.8513 28.672C79.926 28.728 80.0206 28.756 80.1353 28.756C80.3166 28.756 80.4673 28.7067 80.5873 28.608C80.7073 28.5067 80.7673 28.352 80.7673 28.144V27.952L80.4513 27.964ZM83.4935 28.752C83.5468 28.752 83.6015 28.748 83.6575 28.74C83.7135 28.7293 83.7588 28.7187 83.7935 28.708V28.976C83.7562 28.9947 83.7028 29.0093 83.6335 29.02C83.5642 29.0333 83.4975 29.04 83.4335 29.04C83.3215 29.04 83.2175 29.0213 83.1215 28.984C83.0282 28.944 82.9522 28.876 82.8935 28.78C82.8348 28.684 82.8055 28.5493 82.8055 28.376V27.128H82.5015V26.96L82.8095 26.82L82.9495 26.364H83.1575V26.856H83.7775V27.128H83.1575V28.368C83.1575 28.4987 83.1882 28.596 83.2495 28.66C83.3135 28.7213 83.3948 28.752 83.4935 28.752ZM85.4028 26.052C85.4561 26.052 85.5028 26.0707 85.5428 26.108C85.5855 26.1427 85.6068 26.1987 85.6068 26.276C85.6068 26.3507 85.5855 26.4067 85.5428 26.444C85.5028 26.4813 85.4561 26.5 85.4028 26.5C85.3441 26.5 85.2948 26.4813 85.2548 26.444C85.2148 26.4067 85.1948 26.3507 85.1948 26.276C85.1948 26.1987 85.2148 26.1427 85.2548 26.108C85.2948 26.0707 85.3441 26.052 85.4028 26.052ZM85.5748 26.856V29H85.2228V26.856H85.5748ZM89.1181 27.924C89.1181 28.2787 89.0274 28.5533 88.8461 28.748C88.6674 28.9427 88.4247 29.04 88.1181 29.04C87.9287 29.04 87.7594 28.9973 87.6101 28.912C87.4634 28.824 87.3474 28.6973 87.2621 28.532C87.1767 28.364 87.1341 28.1613 87.1341 27.924C87.1341 27.5693 87.2234 27.296 87.4021 27.104C87.5807 26.912 87.8234 26.816 88.1301 26.816C88.3247 26.816 88.4954 26.86 88.6421 26.948C88.7914 27.0333 88.9074 27.1587 88.9901 27.324C89.0754 27.4867 89.1181 27.6867 89.1181 27.924ZM87.4981 27.924C87.4981 28.1773 87.5474 28.3787 87.6461 28.528C87.7474 28.6747 87.9074 28.748 88.1261 28.748C88.3421 28.748 88.5007 28.6747 88.6021 28.528C88.7034 28.3787 88.7541 28.1773 88.7541 27.924C88.7541 27.6707 88.7034 27.472 88.6021 27.328C88.5007 27.184 88.3407 27.112 88.1221 27.112C87.9034 27.112 87.7447 27.184 87.6461 27.328C87.5474 27.472 87.4981 27.6707 87.4981 27.924ZM91.7079 26.816C91.9639 26.816 92.1573 26.8787 92.2879 27.004C92.4186 27.1267 92.4839 27.3267 92.4839 27.604V29H92.1359V27.628C92.1359 27.284 91.9759 27.112 91.6559 27.112C91.4186 27.112 91.2546 27.1787 91.1639 27.312C91.0733 27.4453 91.0279 27.6373 91.0279 27.888V29H90.6759V26.856H90.9599L91.0119 27.148H91.0319C91.1013 27.036 91.1973 26.9533 91.3199 26.9C91.4426 26.844 91.5719 26.816 91.7079 26.816Z" fill="black"/>
</svg>

<svg width="137" height="54" fill="none" xmlns="http://www.w3.org/2000/svg"><path fill="#FFFDFD" d="M0 0h137v54H0z"/><path d="M57.704 37.288c2.664 0 4.656-.912 6.36-2.616l-1.896-2.304c-1.104 1.032-2.592 1.824-4.32 1.824-3.312 0-5.496-2.256-5.496-6.12 0-3.816 2.16-6.144 5.472-6.144 1.56 0 2.832.648 3.912 1.56l1.92-2.304a8.548 8.548 0 0 0-5.904-2.304c-5.28 0-9.048 3.456-9.048 9.312 0 5.904 3.864 9.096 9 9.096ZM77.888 37h4.2l6.264-17.832h-3.6l-2.784 8.712c-.648 1.968-1.176 3.768-1.824 5.736h-.12c-.696-1.968-1.2-3.768-1.824-5.736l-2.808-8.712h-3.744L77.888 37Z" fill="#000"/><path fill="#fff" d="M70 25h22v5H70z"/><path d="M70.812 29 70 26.856h.376l.456 1.264a7.914 7.914 0 0 1 .132.404c.019.064.032.119.04.164h.016c.01-.045.025-.101.044-.168l.068-.208c.027-.072.05-.136.068-.192l.456-1.264h.376L71.216 29h-.404Zm3.371-2.18c.262 0 .455.057.58.172.126.115.188.297.188.548V29h-.256l-.068-.304h-.016a.982.982 0 0 1-.296.26.885.885 0 0 1-.424.084.756.756 0 0 1-.484-.152c-.128-.104-.192-.265-.192-.484a.56.56 0 0 1 .252-.492c.168-.117.427-.181.776-.192l.364-.012v-.128c0-.179-.038-.303-.116-.372a.475.475 0 0 0-.328-.104.98.98 0 0 0-.32.052c-.101.032-.196.07-.284.112l-.108-.264a1.54 1.54 0 0 1 .332-.128c.128-.037.262-.056.4-.056Zm.104 1.144c-.266.01-.452.053-.556.128a.37.37 0 0 0-.152.316c0 .12.036.208.108.264a.46.46 0 0 0 .284.084c.182 0 .332-.05.452-.148.12-.101.18-.256.18-.464v-.192l-.316.012Zm3.186 1.076a1.09 1.09 0 0 1-.508-.116.827.827 0 0 1-.348-.36c-.082-.163-.124-.37-.124-.624 0-.264.044-.479.132-.644a.84.84 0 0 1 .356-.364c.152-.077.324-.116.516-.116.11 0 .215.012.316.036.102.021.184.048.248.08l-.108.292a2.07 2.07 0 0 0-.224-.068.993.993 0 0 0-.24-.032c-.42 0-.632.27-.632.812 0 .259.051.457.152.596.104.136.258.204.46.204.118 0 .22-.012.308-.036.091-.024.174-.053.248-.088v.312a.947.947 0 0 1-.24.084c-.085.021-.189.032-.312.032Zm2.874-2.22c.262 0 .455.057.58.172.126.115.188.297.188.548V29h-.256l-.068-.304h-.016a.98.98 0 0 1-.296.26.885.885 0 0 1-.424.084.756.756 0 0 1-.484-.152c-.128-.104-.192-.265-.192-.484a.56.56 0 0 1 .252-.492c.168-.117.427-.181.776-.192l.364-.012v-.128c0-.179-.038-.303-.116-.372a.475.475 0 0 0-.328-.104.98.98 0 0 0-.32.052c-.101.032-.196.07-.284.112l-.108-.264a1.54 1.54 0 0 1 .332-.128c.128-.037.262-.056.4-.056Zm.104 1.144c-.266.01-.452.053-.556.128a.37.37 0 0 0-.152.316c0 .12.036.208.108.264a.46.46 0 0 0 .284.084c.182 0 .332-.05.452-.148.12-.101.18-.256.18-.464v-.192l-.316.012Zm3.043.788c.053 0 .108-.004.163-.012.056-.01.102-.021.136-.032v.268a.56.56 0 0 1-.16.044c-.069.013-.135.02-.2.02a.854.854 0 0 1-.312-.056.493.493 0 0 1-.227-.204c-.06-.096-.089-.23-.089-.404v-1.248h-.304v-.168l.308-.14.14-.456h.209v.492h.62v.272h-.62v1.24c0 .13.03.228.091.292a.338.338 0 0 0 .245.092Zm1.909-2.7c.053 0 .1.019.14.056.042.035.064.09.064.168 0 .075-.022.13-.064.168a.199.199 0 0 1-.14.056.209.209 0 0 1-.148-.056c-.04-.037-.06-.093-.06-.168 0-.077.02-.133.06-.168a.209.209 0 0 1 .148-.056Zm.172.804V29h-.352v-2.144h.352Zm3.543 1.068c0 .355-.09.63-.272.824-.179.195-.421.292-.728.292-.19 0-.359-.043-.508-.128a.926.926 0 0 1-.348-.38 1.329 1.329 0 0 1-.128-.608c0-.355.09-.628.268-.82.179-.192.421-.288.728-.288.195 0 .365.044.512.132.15.085.265.21.348.376.085.163.128.363.128.6Zm-1.62 0c0 .253.05.455.148.604.101.147.261.22.48.22.216 0 .375-.073.476-.22.101-.15.152-.35.152-.604 0-.253-.05-.452-.152-.596-.101-.144-.261-.216-.48-.216-.219 0-.377.072-.476.216-.099.144-.148.343-.148.596Zm4.21-1.108c.256 0 .45.063.58.188.13.123.196.323.196.6V29h-.348v-1.372c0-.344-.16-.516-.48-.516-.237 0-.401.067-.492.2-.09.133-.136.325-.136.576V29h-.352v-2.144h.284l.052.292h.02a.623.623 0 0 1 .288-.248.924.924 0 0 1 .388-.084Z" fill="#000"/></svg>
